svg/icon/bela.svg

<svg xmlns="http://www.w3.org/2000/svg" xmlns:xlink="http://www.w3.org/1999/xlink" width="32" height="32" viewBox="0 0 32 32"><defs><linearGradient id="bela-c" x1="50%" x2="50%" y1="0%" y2="100%"><stop offset="0%" stop-color="#FFF" stop-opacity=".5"/><stop offset="100%" stop-opacity=".5"/></linearGradient><circle id="bela-b" cx="16" cy="15" r="15"/><filter id="bela-a" width="111.7%" height="111.7%" x="-5.8%" y="-4.2%" filterUnits="objectBoundingBox"><feOffset dy=".5" in="SourceAlpha" result="shadowOffsetOuter1"/><feGaussianBlur in="shadowOffsetOuter1" result="shadowBlurOuter1" stdDeviation=".5"/><feComposite in="shadowBlurOuter1" in2="SourceAlpha" operator="out" result="shadowBlurOuter1"/><feColorMatrix in="shadowBlurOuter1" values="0 0 0 0 0 0 0 0 0 0 0 0 0 0 0 0 0 0 0.199473505 0"/></filter><path id="bela-e" d="M8.29693217,10.5682513 C7.52600585,10.1635983 7,9.35419349 7,8.42168675 C7,7.08422609 8.08205329,6 9.41683367,6 C10.3427917,6 11.147127,6.5217745 11.5529734,7.28790138 C12.8751454,6.51506712 14.4130223,6.07228916 16.0541082,6.07228916 C20.9947878,6.07228916 25,10.0855439 25,15.0361446 C25,19.9867452 20.9947878,24 16.0541082,24 C11.1134286,24 7.10821643,19.9867452 7.10821643,15.0361446 C7.10821643,13.4092258 7.54077159,11.8835385 8.29693217,10.5682513 Z M16.0541082,19.4457831 C18.4846038,19.4457831 20.4549098,17.4715207 20.4549098,15.0361446 C20.4549098,12.6007685 18.4846038,10.626506 16.0541082,10.626506 C13.6236126,10.626506 11.6533066,12.6007685 11.6533066,15.0361446 C11.6533066,17.4715207 13.6236126,19.4457831 16.0541082,19.4457831 Z"/><filter id="bela-d" width="119.4%" height="119.4%" x="-9.7%" y="-6.9%" filterUnits="objectBoundingBox"><feOffset dy=".5" in="SourceAlpha" result="shadowOffsetOuter1"/><feGaussianBlur in="shadowOffsetOuter1" result="shadowBlurOuter1" stdDeviation=".5"/><feColorMatrix in="shadowBlurOuter1" values="0 0 0 0 0 0 0 0 0 0 0 0 0 0 0 0 0 0 0.204257246 0"/></filter></defs><g fill="none" fill-rule="evenodd"><use fill="#000" filter="url(#bela-a)" xlink:href="#bela-b"/><use fill="#13A0F6" xlink:href="#bela-b"/><use fill="url(#bela-c)" style="mix-blend-mode:soft-light" xlink:href="#bela-b"/><circle cx="16" cy="15" r="14.5" stroke="#000" stroke-opacity=".097"/><g><use fill="#000" filter="url(#bela-d)" xlink:href="#bela-e"/><use fill="#FFF" xlink:href="#bela-e"/></g></g></svg>

<svg xmlns="http://www.w3.org/2000/svg" xmlns:xlink="http://www.w3.org/1999/xlink" width="32" height="32" viewBox="0 0 32 32"><defs><linearGradient id="c" x1="50%" x2="50%" y1="0%" y2="100%"><stop offset="0%" stop-color="#FFF" stop-opacity=".5"/><stop offset="100%" stop-opacity=".5"/></linearGradient><circle id="b" cx="16" cy="15" r="15"/><filter id="a" width="111.7%" height="111.7%" x="-5.8%" y="-4.2%" filterUnits="objectBoundingBox"><feOffset dy=".5" in="SourceAlpha" result="shadowOffsetOuter1"/><feGaussianBlur in="shadowOffsetOuter1" result="shadowBlurOuter1" stdDeviation=".5"/><feComposite in="shadowBlurOuter1" in2="SourceAlpha" operator="out" result="shadowBlurOuter1"/><feColorMatrix in="shadowBlurOuter1" values="0 0 0 0 0 0 0 0 0 0 0 0 0 0 0 0 0 0 0.199473505 0"/></filter><path id="e" d="M8.297 10.568A2.422 2.422 0 0 1 7 8.422a2.416 2.416 0 1 1 4.553-1.134 8.891 8.891 0 0 1 4.501-1.216c4.94 0 8.946 4.014 8.946 8.964S20.995 24 16.054 24c-4.94 0-8.946-4.013-8.946-8.964a8.94 8.94 0 0 1 1.189-4.468zm7.757 8.878c2.43 0 4.4-1.974 4.4-4.41 0-2.435-1.97-4.41-4.4-4.41-2.43 0-4.4 1.975-4.4 4.41 0 2.436 1.97 4.41 4.4 4.41z"/><filter id="d" width="119.4%" height="119.4%" x="-9.7%" y="-6.9%" filterUnits="objectBoundingBox"><feOffset dy=".5" in="SourceAlpha" result="shadowOffsetOuter1"/><feGaussianBlur in="shadowOffsetOuter1" result="shadowBlurOuter1" stdDeviation=".5"/><feColorMatrix in="shadowBlurOuter1" values="0 0 0 0 0 0 0 0 0 0 0 0 0 0 0 0 0 0 0.204257246 0"/></filter></defs><g fill="none" fill-rule="evenodd"><use fill="#000" filter="url(#a)" xlink:href="#b"/><use fill="#13A0F6" xlink:href="#b"/><use fill="url(#c)" style="mix-blend-mode:soft-light" xlink:href="#b"/><circle cx="16" cy="15" r="14.5" stroke="#000" stroke-opacity=".097"/><use fill="#000" filter="url(#d)" xlink:href="#e"/><use fill="#FFF" xlink:href="#e"/></g></svg>
